svgs/droidfs.svg

<svg xmlns="http://www.w3.org/2000/svg" viewBox="0 0 192 192"><path d="M16.522 109.987v55.026c0 2.221.882 4.353 2.451 5.923a8.361 8.361 0 0 0 5.916 2.454h142.243a8.363 8.363 0 0 0 7.247-4.188 8.39 8.39 0 0 0 1.121-4.189v-55.026Zm143.959-58.23 11.13-10.974a13.014 13.014 0 0 0-.037-18.386 12.989 12.989 0 0 0-9.19-3.791 12.988 12.988 0 0 0-9.175 3.824l-.007.008-10.963 11.182A79.072 79.072 0 0 0 96.01 18.692 79.073 79.073 0 0 0 49.78 33.62L38.736 22.564a13.634 13.634 0 0 0-9.329-3.938 12.802 12.802 0 0 0-9.12 3.77 12.995 12.995 0 0 0 0 18.345l11.17 10.974a79.653 79.653 0 0 0-14.935 46.492v11.78H175.5v-11.78a79.653 79.653 0 0 0-15.019-46.45Zm-85.389 30.03c0 3.331-1.323 6.53-3.676 8.885a12.546 12.546 0 0 1-17.75 0 12.576 12.576 0 0 1 0-17.77 12.546 12.546 0 0 1 19.745 2.603 12.572 12.572 0 0 1 1.682 6.283Zm54.387 12.565a12.547 12.547 0 0 1-8.875-3.68 12.578 12.578 0 0 1 0-17.77 12.547 12.547 0 0 1 8.875-3.68c3.327 0 6.522 1.324 8.875 3.68a12.578 12.578 0 0 1 1.995 15.168 12.548 12.548 0 0 1-10.869 6.283Z" fill="none" stroke="#000" stroke-width="8" stroke-linecap="round" stroke-linejoin="round"/><path d="M84.683 137.365v-6.023a11.336 11.336 0 0 1 3.316-8.008c2.121-2.122 5-3.316 7.999-3.316 3 0 5.879 1.194 8 3.316a11.336 11.336 0 0 1 3.316 8.008v6.023m-28.492 0h34.353v25.672H78.822Zm17.176 15.468v-5.263" fill="none" stroke="#000" stroke-width="8" stroke-linecap="round" stroke-linejoin="round"/></svg>

<svg
    xmlns="http://www.w3.org/2000/svg"
    viewBox="0 0 192 192"
    id="vector">
    <path
        id="path"
        d="M 16.522 109.987 L 16.522 165.013 C 16.522 167.234 17.404 169.366 18.973 170.936 C 20.541 172.507 22.671 173.39 24.889 173.39 L 167.132 173.39 C 168.601 173.39 170.044 173.003 171.316 172.268 C 172.588 171.533 173.645 170.475 174.379 169.202 C 175.113 167.928 175.5 166.484 175.5 165.013 L 175.5 109.987 Z M 160.481 51.757 L 171.611 40.783 C 174.04 38.341 175.402 35.029 175.395 31.583 C 175.388 28.136 174.013 24.83 171.574 22.397 C 169.135 19.965 165.827 18.6 162.384 18.606 C 158.942 18.613 155.639 19.989 153.209 22.43 L 153.202 22.438 L 142.239 33.62 C 128.776 23.916 112.599 18.692 96.01 18.692 C 79.42 18.692 63.243 23.916 49.78 33.62 L 38.736 22.564 C 36.247 20.102 32.905 18.692 29.407 18.626 C 27.713 18.62 26.035 18.949 24.47 19.596 C 22.904 20.243 21.483 21.195 20.287 22.396 C 17.861 24.829 16.497 28.13 16.497 31.568 C 16.497 35.007 17.861 38.308 20.287 40.741 L 31.457 51.715 C 21.736 65.26 16.51 81.528 16.522 98.207 L 16.522 109.987 L 175.5 109.987 L 175.5 98.207 C 175.479 81.533 170.223 65.28 160.481 51.757 Z M 75.092 81.787 C 75.092 85.118 73.769 88.317 71.416 90.672 C 69.063 93.028 65.868 94.352 62.541 94.352 C 59.213 94.352 56.019 93.028 53.666 90.672 C 51.313 88.317 49.99 85.118 49.99 81.787 C 49.99 78.456 51.313 75.258 53.666 72.902 C 56.019 70.546 59.213 69.222 62.541 69.222 C 64.744 69.222 66.909 69.802 68.817 70.905 C 70.725 72.008 72.31 73.594 73.411 75.505 C 74.513 77.415 75.093 79.582 75.093 81.788 Z M 129.479 94.352 C 126.152 94.352 122.957 93.028 120.604 90.672 C 118.251 88.316 116.928 85.118 116.928 81.787 C 116.928 78.456 118.251 75.258 120.604 72.902 C 122.957 70.546 126.152 69.222 129.479 69.222 C 132.806 69.222 136.001 70.546 138.354 72.902 C 140.707 75.258 142.03 78.456 142.03 81.787 C 142.03 83.993 141.45 86.16 140.349 88.07 C 139.248 89.98 137.663 91.567 135.755 92.669 C 133.847 93.772 131.683 94.353 129.48 94.353 Z"
        fill="none"
        stroke="#000000"
        stroke-width="8"
        stroke-linecap="round"
        stroke-linejoin="round"/>
    <path
        id="path_1"
        d="M 84.683 137.365 L 84.683 131.342 C 84.684 128.339 85.877 125.457 87.999 123.334 C 90.12 121.212 92.999 120.018 95.998 120.018 C 98.998 120.018 101.877 121.212 103.998 123.334 C 106.12 125.457 107.313 128.339 107.314 131.342 L 107.314 137.365 M 78.822 137.365 L 113.175 137.365 L 113.175 163.037 L 78.822 163.037 Z M 95.998 152.833 L 95.998 147.57"
        fill="none"
        stroke="#000000"
        stroke-width="8"
        stroke-linecap="round"
        stroke-linejoin="round"/>
</svg>
